X:1
T:Scene (Allegro moderato, Allegro vivace)
T:Scene (Allegro moderato, Allegro vivo)
T:Swan Lake, Piano Arrangement for 3 hands
T:Hinci
C:Hinci
%%score { ( 1 5 ) | ( 2 3 ) | ( 4 6 ) }
L:1/8
Q:1/4=124
M:4/4
K:G
V:1 treble nm="Piano" snm="Pno."
V:5 treble 
V:2 bass 
V:3 bass 
V:4 bass 
V:6 bass 
V:1
"^Allegro moderato."!f! D>E F>G A>B c>^c | (!>!d3 [ce]) B>c d2 | (!>!d3 e) [GB]>[A^c] [Bd]>[ce] | %3
 (!>![df]3 [^ce]) (3(dfe) (3(dAF) | D>E F>G A>B c>^c | (!>!d3 [ce]) B>c d2 | %6
 (!>!d3 e) [GB]>[A^c] [Bd]>[ce] | ([Bdf]7/2 [A^c]/) (3(edc) (3(def) | (g3 a) (3(gfe) (3(def) | %9
 (!>!=f3 g) (3(fed) (3(cde) | (!>!d3 e) (3(dcB) (3(cdc) | (3(cBA) (3(GBA) (3(GFA) (3(def) | %12
 (g3 a) (3(gfe) (3(def) | (!>!=f3 g) (3(fed) (3(cde) | (!>!d3 e) (3(dcB) (3(cdc) | %15
 (3(cBA) (3(GBA) (3(GFA) (3(FED) |!ff! [_efa][efb][efc'] z z4 | ([aa']3 [ff']) ([aa']3 [ff']) | %18
!ff! [_EFA][EFB][EFc] z z4 | ([Aa]3 [Ff]) ([Aa]3 [Ff]) | %20
 [_EFc]4!f!!<(! (3_e/c/e/(3f/e/f/ (3c'/f/c'/(3_e'/f/e'/!<)! | %21
!ff! [gc'_e'g'] z!mp! .[_EG] z .[E_A] z .[DA] z | %22
 .[C_EG].[D=FB].[EGc].[F_Ad] .[^Fc_e].[Gc=e].[cd=f].[c_e^f] | .[ceg] z z4 d2 | (!>!g3 a) e>=f g2 | %25
 (!>!g3 a) e>=f g>a | !>!b>c' b>a g>e d>c | G6 d2 | (!>!g3 a) e>=f g2 | (!>!g3 a) e>=f g>a | %30
 !>!b>c' b>a g>a g>a | !>!b>c' b>a g>a g>a | b>c' d'>c' b>c' b>a |!f! E>=F G>A B>c d>^d | %34
 e>f ^^f>^g a>b c'>d' | (!>!e'3 e) c'>b a2 | ^g>f e2 z4 | E>F G>^G A>B c>d | e>f ^^f>^g a>b c'>d' | %39
 (!>!e'3 e) c'>b a2 | ^g>f e2 z4 |!p!!<(! !///-!E4 [^G,B,]4 | !///-![E^G]4 B,4 | %43
 !///-![^GB]4!<)!!mf! E4 |!f! [E^GBe]2 [=FA^d=f]2 [EGBe]2 [FAdf]2 | %45
 [E^GBe]2 [=FA^d=f]2 [EGBe]2 [FAdf]2 | [E^GBe]2!ff! [ebe']2 !fermata!z4 || %47
[K:C]"^Moderato."!mf![Q:1/4=108] a4 g3 f | e6 e2 | (^d2 c2 B2 A2) | d6 d2 | (^c2 A2 G2 ^F2) | %52
 c6 c2 | (B2 d2 ^c2 B2) | ^c8 |!p! .[^CE^F^A] z z2[Q:1/4=110] z4 | %56
[Q:1/4=112] .[D^FB] z[Q:1/4=113] .[^CEFB] z[Q:1/4=114] .[B,DFB] z z2 | %57
[Q:1/4=115] .[^CA^c] z z2[Q:1/4=116] .[EAc] z z2 | %58
[Q:1/4=117] .[DAd] z[Q:1/4=118] .[GAd] z[Q:1/4=119] .[^FAd] z z2 |!mp! (f4 ^g4) | %60
 (!>!^f2 !>!^g2 !>!a2 !>!b2) | !>![^c^c']8 |!mp! ([^GB^cf]2 [^FA^f]2)[Q:1/4=132]!mf! F4 | %63
 B4 (^c3 B) | A6 d2 | (A2 B2 A3 G) | (G2 ^F2) ^f4 | b4 (^c'3 b) | a6 d'2 | (a2 b2 a3 g) | %70
 (g2"^Più mosso."[Q:1/4=144]!mp! ([^F^f]2) [cc']2 [Bb]2) | %71
[Q:1/4=146] ([Aa]2 [Gg]2[Q:1/4=148] [^D^d]2 [Ee]2) | %72
[Q:1/4=150]!<(! ([Ff]2 [^F^f]2)[Q:1/4=152] ([cc']2 [Bb]2) | %73
[Q:1/4=154] ([Aa]2 [Gg]2[Q:1/4=156] [^D^d]2 [Ee]2) | %74
[Q:1/4=158] ([Ff]2 [^F^f]2)[Q:1/4=160] ([dd']2 [cc']2)!<)! | %75
!mf![Q:1/4=162] ([Bb]2 [Aa]2[Q:1/4=164] [Ff]2 [^F^f]2) | %76
[Q:1/4=166] ([Gg]2 [^G^g]2)[Q:1/4=168]!<(! ([dd']2 [cc']2) | %77
[Q:1/4=170] ([Bb]2 [Aa]2 [Ff]2 [^F^f]2) | ([Gg]2 [^G^g]2)!<)!!ff! [^f^f']4- | %79
[Q:1/4=180] [ff']2 ([^A^a]2 [Bb]2 [^c^c']2) | ([ee']2 [dd']2)[Q:1/4=181] [^f^f']4- | %81
 [ff']2 ([^A^a]2 [Bb]2 [^c^c']2) | ([ee']2 [dd']2) [^f^f']4- | [ff']4 [^f^f']4- | %84
 [ff']4[Q:1/4=190] [gg']4- | [gg']2 ([Bb]2 [cc']2 [dd']2) | ([ff']2 [_e_e']2)[Q:1/4=191] [gg']4- | %87
 [gg']2 ([Bb]2 [cc']2 [dd']2) | ([ff']2 [_e_e']2) [gg']4- |[Q:1/4=200] [gg']4 [gg']4- | %90
[Q:1/4=210] [gg']4 [aa']4- |[Q:1/4=222]"_dim." [aa']2 g'g _e'_ec'c | %92
 aAfF[Q:1/4=224] _e[Q:1/4=226]_E[Q:1/4=228]c[Q:1/4=230]C | %93
[Q:1/4=232][I:staff +1] AA,[Q:1/4=234]FF,[Q:1/4=236] _E_E,[Q:1/4=238]CC, | %94
[I:staff -1][K:bass][Q:1/4=240]!mf! [_B,,_B,] z[Q:1/4=242] [A,,A,] z[Q:1/4=246] [G,,G,] z[Q:1/4=248] [_G,,_G,] z | %95
[Q:1/4=250] [F,,F,] z[Q:1/4=252] [E,,E,] z[Q:1/4=254] [F,,F,] z[Q:1/4=256] [^F,,^F,] z | %96
[Q:1/4=260] [G,,G,] z[Q:1/4=264] [^F,,^F,] z[Q:1/4=268] [G,,G,] z[Q:1/4=272] [^G,,^G,] z | %97
[Q:1/4=280] z8 | z8 ||[K:Bb][M:2/2][K:treble]!mf! (d6 ^c2) | (e4 d4) | (d6 ^c2) | (e4 d4) | %103
 (^c2 d2 f2 e2) | (e4 d4) | (d4 c4) | (c4 =B4) | (c2 e2 g4-) | g2 (e2 ^c2 d2) | (e6 d2) | (f4 e4) | %111
 (e6 d2) | (f4 e4) | B6 B2 | (B4 A4) | ^c6 c2 | (^c4 =c4) | f6 f2 |!>(! [GB=e]4 [FA_e]4 | %119
 [FBd]4 [GB_d]4!>)! |!mp! [Ac]4 z4 |!mp! F4 F3 F | (B4 A4) | (G4 A4) | (F4 A4) | (G4 A4) | %126
 (F4 A4) |"_cresc." B6 c2 | (d4 e4) | ([Ff]4 [Ge]4) | ([=Bd]4 [ce]4) | ([Ff]4 [Ge]4) | %132
 ([=Bd]4 [ce]4) |!f! [Ff]4 [Ff]4- | [Ff]4 [Ff]4 | %135
!mf! (3[=bd'f']2 [bd'f']2 [bd'f']2 (3[bd'f']2 [bd'f']2 [bd'f']2 | %136
 (3[=bd'f']2 [bd'f']2 [bd'f']2 (3[bd'f']2 [bd'f']2 [bd'f']2 || %137
[K:B][Q:1/4=290] ([FBdf]6 [^^C^^c]2) | ([Ee]4 [Dd]4) | ([Dd]6 [^^C^^c]2) | ([Ee]4 [Dd]4) | %141
 ([^^C^^c]2 [Dd]2 [Ff]2 [Ee]2) | ([Ee]4 [Dd]4) | ([Dd]4 [Cc]4) | ([Cc]4 [^B,^B]4) | %145
 ([Cc]2 [Ee]2 [Gg-]4) | g2 ([Dd]2 [^^C^^c]2 [Dd]2) | ([Ee]6 [Dd]2) | ([Ff]4 [Ee]4) | %149
 ([Ee]6 [Dd]2) | ([Ff]4 [Ee]4) | [B,B]6 [B,B]2 | ([B,B]4 [A,A]4) | [=D=d]6 [Dd]2 | %154
 ([=D=d]4 [Cc]4) | [Ff]6 [Ff]2 |!>(! [Gc=f]4 [Fce]4 | [FBd]4 [GB^^c]4!>)! |!mp! [Ac]4 z4 | %159
 F4 F3 F | (B4 A4) | (G4 A4) | (F4 A4) | (G4 A4) | (F4 A4) |"^accel.""_cresc." (B6 c2) | %166
[Q:1/4=281] ([FBd]4 [Fce]4) |[Q:1/4=282] ([Ff]4 [Ge]4) |[Q:1/4=283] ([^Bd]4 [ce]4) | %169
[Q:1/4=284] ([Ff]4 [Ge]4) |[Q:1/4=285] ([^Bd]4 [ce]4) |!ff![Q:1/4=290] [fc'f']4 [egc'e']4 | %172
 [dg^bd']4 [egc'e']4 |[Q:1/4=295] [fc'f']4 [egc'e']4 | [dg^bd']4 [egc'e']4 || %175
[K:C][Q:1/4=300] (3[gc'g']2 [gc'g']2 [gc'g']2 [gc'g']4 | !>!e3 d c4 | !>!e3 d c4 | !>!e3 d c4 | %179
 (3[gc'g']2 [gc'g']2 [gc'g']2 [gc'g']4 | !>!e3 d c4 | !>!e3 d c4 | !>!e3 d c4 | %183
 (3[gc'g']2 [gc'g']2 [gc'g']2 [gc'g']4 | (3[^gc'^g']2 [gc'g']2 [gc'g']2 [gc'g']4 | %185
 (3[a^c'g'a']2 [ac'g'a']2 [ac'g'a']2 [ac'g'a']4 | %186
 (3[^ac'^f'^a']2 [ac'f'a']2 [ac'f'a']2 [ac'f'a']4 | (3[^af'^a']2 [af'a']2 [af'a']2 [af'a']4 | %188
 !>!d3 c _B4 | !>!d3 c _B4 | !>!d3 c _B4 | (3[^af'^a']2 [af'a']2 [af'a']2 [af'a']4 | !>!d3 c _B4 | %193
 !>!d3 c _B4 | !>!d3 c _B4 | (3[^af'^a']2 [af'a']2 [af'a']2 [af'a']4 | %196
 (3[bf'^g'b']2 [bf'g'b']2 [bf'g'b']2 [bf'g'b']4 | %197
 (3[c'f'^g'c'']2 [c'f'g'c'']2 [c'f'g'c'']2 [c'f'g'c'']4 | %198
 (3[^c'f'^g'^c'']2 [c'f'g'c'']2 [c'f'g'c'']2 [c'f'g'c'']4 |!f! ([Aa]6 [^G^g]2) | ([_B_b]4 [Aa]4) | %201
 ([Aa]6 [^G^g]2) | ([_B_b]4 [Aa]4) | ([Aa]2 [_B_b]2) ([^F^f]2 [Gg]2) | (!>![ee']4 [dd']4) | %205
 (!>![^F^f]4 [Gg]4) | (!>![B,B]4 [Cc]4) | ([Aa]6 [^G^g]2) | ([_B_b]4 [Aa]4) | ([Aa]6 [^G^g]2) | %210
 ([_B_b]4 [Aa]4) | ([Aa]2 [_B_b]2) ([^F^f]2 [Gg]2) | (!>![ee']4 [dd']4) | (!>![^F^f]4 [Gg]4) | %214
 (!>![B,B]4 [Cc]4) |[Q:1/4=295] (!>![B,B]4 [Cc]4) |[Q:1/4=290] (!>![B,B]4 [Cc]4) | %217
[Q:1/4=285]!>(! z8 |[Q:1/4=280] z8 |[Q:1/4=275] z8 |[Q:1/4=270] z8!>)! |!mp! z8 | %222
"^L'istesso tempo."[Q:1/4=250] (^F6 =F2) | (!>!A4 ^G4) | (^F6 =F2) | (!>!A4 ^G4) | %226
"_cresc." (^c6 =c2) | (!>!e4 ^d4) | (^c6 =c2) | (!>!e4!mf! ^d4) |!f! (a6 ^g2) | (!>!b4 a4) | %232
 (a6 ^g2) | (!>!b4 a4) | ([^c^c']4 [=c=c']4) | ([Bb]4 [cc']4) | ([^d^d']4 [^c^c']4) | %237
!>(! ([cc']4 [^c^c']4)!>)! |!mp! (^F6 =F2) | (!>!A4 ^G4) | (^F6 =F2) | (!>!A4 ^G4) | %242
"_cresc." (^c6 =c2) | (!>!e4 ^d4) | (^c6 =c2) | (!>!e4!mf! ^d4) |!f! (a6 ^g2) | (!>!b4 a4) | %248
 (a6 ^g2) | (!>!b4 a4) | ([^c^c']4 [=c=c']4) | ([Bb]4 [cc']4) | ([^d^d']4 [^c^c']4) | %253
 ([cc']4 [^c^c']4) | ([^d^d']4 [^c^c']4) | ([cc']4 [^c^c']4) | %256
 ([^d^d']2 [^c^c']2) ([dd']2 [cc']2) | ([^d^d']2 [^c^c']2) ([dd']2 [cc']2) | %258
 ([^d^d']2 [^c^c']2) ([dd']2 [cc']2) |!<(! ([^d^d']2 [^c^c']2) ([dd']2!<)!!f! [cc']2) | %260
[Q:1/4=200]!<(! !//-![^fa]4[Q:1/4=212] [d'^f']4 |[Q:1/4=225] !//-![^fa]4[Q:1/4=238] [d'^f']4!<)! | %262
!ff![Q:1/4=250] [^fad'^f']2 z [^F,A,^F] z [A,FA] z [DAd] | z [^Fd^f] z [Ada] z [dad'] z [fa^f'] | %264
!f!!<(! !//-![ad']4 [^f'a']4 | !//-![ad']4 [^f'a']4!<)! | %266
!ff! [^fad'^f']2 z [A,^FA] z [DAd] z [Fdf] | z [Ada] z [dad'] z [^fa^f'] z [ad'a'] | %268
[Q:1/4=268] [^c'^c'']6!f! !>![^c^fac']2 | !>![^fa^f']4 !>![eae']4 | !>![d^fbd']4 !>![^cf^c']4 | %271
!<(! !>![F^GBf]4 !>![^FA^f]4 | !>![^G^f^g]4!<)!!ff! !>![^cfg^c']4 | !fermata!z8 |] %274
V:2
 [B,,G,]4 C>B, A,2 | F,>E, D,2 G,3 ^G, | A,>D, E,>F, G,4 | ^G,>^A, B,>F, F,4 | [B,,G,]4 C>B, A,2 | %5
 F,>E, D,2 G,3 ^G, | A,>D, E,>F, G,4 | ^G,>[A,A] [B,^G]>[A,=G] [DF]4 |!mf! D,8 | D,8 | D,8 | %11
 D,4 D, z z2 | D,8 | D,8 | D,8 | D,4 D, z z2 | [C,C][B,,B,][A,,A,] z!mp! !///-![F,C]2 _E2 | %17
 !///-![F,C]4 _E4 | [C,A,][B,,B,][A,,C] z!mp! !///-![F,C]2 _E2 | !///-![F,C]4 _E4 | %20
[K:treble]!<(! (3C/_E/C/(3E/C/E/ (3F/E/F/(3c/F/!<)!!f!c/ z2 [_efc']2 | %21
[K:bass] !>![G,,G,] z .[G,C] z .[F,C] z .[=F,B,] z | ._E,.D,.C,.B,, ._B,,._B,.A,._A, | %23
 G,4 =F,>E, D,>C, | B,,>A,, G,,2 C,>D, E,>=F, | G,>A, B,2 C>D E2 | (!>!_E4 =E4) | %27
 G,4 =F,>E, D,>C, | B,,>A,, G,,2 C,>D, E,>=F, | G,>A, B,2 C>D E2 | (!>!^D4 E4) | (!>!^D4 E4) | %32
 [G,^D]8 |!mf! [G,C]4 [=F,B,D]4 | [E,B,D]4 [E,A,]4 | E,>F, G,>^G, A,>B, C>D | E3 D C>B, A,2 | %37
!mf! E,4 [E,B,]4 | [E,B,D]4 [E,A,]4 | E,>F, G,>^G, A,>B, C>D | E3!>(! D C>B, A,2!>)! | E,8 | B,,8 | %43
 [^G,,^G,]8 | [E,,E,]2 [C,C]2 [E,,E,]2 [C,C]2 | [E,,E,]2 [C,C]2 [E,,E,]2 [C,C]2 | %46
 [E,,E,]2 E2 !fermata!z4 ||[K:C][K:treble]!p! .[DFAd] z z2 z4 | .[CEA] z .[B,DEA] z .[A,CEA] z z2 | %49
 .[B,^DA] z z2 z4 | .[B,E^G] z .[B,E^FA] z .[B,EGB] z z2 | .[A,^CEA] z z2 z4 | %52
 .[A,D^F] z .[A,DEG] z .[A,DFA] z z2 | .[G,B,DG] z z2 .[G,B,DF] z z2 | %54
 z2 .[G,B,^CF] z .[^F,^A,C^F] z z2 |[K:bass]!mf! ^F,4"^espress." (^G,3 ^A,) | B,6 B,2 | %57
 (^F2 E2 ^C2 A,2) | D6 D2 |[K:treble] (A2 ^G2 F2 ^C2) | A6 A2 | (E2 F2 A2 F2) | %62
 z6[K:bass]!p! .[^F,A,^C] z | z2 .[G,A,^CE] z z2 .[G,A,CE] z | z2 .[^F,A,D^F] z z2 .[F,A,DF] z | %65
 z2 .[A,^CE] z z2 .[A,CE] z | z2 !arpeggio!.[D,A,D] z z2 !arpeggio!.[D,A,D^F] z | %67
 z2 .[G,A,^CE] z z2 .[G,A,CE] z | z2 .[^F,A,D^F] z z2 .[F,A,DF] z | z2 .[A,^CE] z z2 .[A,CE] z | %70
 D,4 ^D,4 | E,4 A,,4 | D,4 ^D,4 | E,4 A,,4 | D,4 E,4 | ^D,4 B,,4 | E,4 E,4 | ^D,4 B,,4 | %78
 E,4 [^F,^F]4 | [E,,E,]4 z4 | (E2 D2) ^F4 | [E,,E,]4 z4 | (E2 D2) ^F4 | [E,,E,]4 ^F4 | %84
 [E,,E,]4 G4 | [F,,F,]4 z4 | (F2 _E2) G4 | [F,,F,]4 z4 | (F2 _E2) G4 | [F,,F,]4 G4 | [F,,F,]4 A4 | %91
 [F,,F,]2[I:staff -1] gG _e_EcC |[I:staff +1] AA,FF, _E_E,CC, | A,A,,F,F,, _E,_E,,C,C,, | %94
 z _B,, z A,, z G,, z _G,, | z F,, z E,, z F,, z ^F,, | z G,, z ^F,, z G,, z ^G,, | %97
!>(! [_B,,_B,]2 z2 [A,,A,]2 z2 | [G,,G,]2 z2!>)!!mp! [F,,F,]2 z2 || %99
[K:Bb][M:2/2]!p! [B,,,B,,]2 z2 [F,,F,]2 z2 | [B,,B,]2 z2 [F,,F,]2 z2 | [B,,,B,,]2 z2 [F,,F,]2 z2 | %102
 [B,,B,]2 z2 [F,,F,]2 z2 | [B,,,B,,]2 z2 [F,,F,]2 z2 | [B,,B,]2 z2 [F,,F,]2 z2 | %105
 [E,,E,]2 z2 [G,,G,]2 z2 | [D,,D,]2 z2 [G,,G,]2 z2 | [C,,C,]2 z2 [G,,G,]2 z2 | %108
 [=B,,,=B,,]2 z2 [G,,G,]2 z2 | [C,,C,]2 z2 [G,,G,]2 z2 | [C,C]2 z2 [G,,G,]2 z2 | %111
 [C,,C,]2 z2 [G,,G,]2 z2 | [C,C]2 z2 [G,,G,]2 z2 | [_G,,_G,]2 z2 [C,C]2 z2 | %114
 [F,,F,]2 z2 [C,C]2 z2 | [B,,B,]2 z2 B,,2 z2 | A,,2 z2 [A,,A,]2 z2 | [_D,,_D,]2 z2 [G,,G,]2 z2 | %118
 [C,,C,]2 z2 [_C,,_C,]2 z2 | [B,,,B,,]2 z2 [=E,,=E,]2 z2 | [F,,F,]2 z2 z4 | D,8 | E,8 | D,8 | E,8 | %125
 D,8 | E,8 | (D,4 C,4) | (B,,4 A,,4) | (_A,,4 C,4) | (G,,4 C,4) | (_A,,4 C,4) | (G,,4 C,4) | %133
 [_A,,C]2 [_A,C]4 [A,C]2- | [A,C]2 [_A,C]4 [A,C]2 | %135
[K:treble] (3[=Bdf]2 [Bdf]2 [Bdf]2 (3[Bdf]2 [Bdf]2 [Bdf]2 | %136
 (3[=Bdf]2 [Bdf]2 [Bdf]2 (3[Bdf]2 [Bdf]2 [Bdf]2 ||[K:B][K:bass]!mp! [B,,,B,,]2 z2 [F,,F,]2 z2 | %138
 [B,,B,]2 z2 [F,,F,]2 z2 | [B,,,B,,]2 z2 [F,,F,]2 z2 | [B,,B,]2 z2 [F,,F,]2 z2 | %141
 [B,,,B,,]2 z2 [F,,F,]2 z2 | [B,,B,]2 z2 [F,,F,]2 z2 | [E,,E,]2 z2 [G,,G,]2 z2 | %144
 [D,,D,]2 z2 [G,,G,]2 z2 | [C,,C,]2 z2 [G,,G,]2 z2 | [^B,,,^B,,]2 z2 [G,,G,]2 z2 | %147
 [C,,C,]2 z2 [G,,G,]2 z2 | [C,C]2 z2 [G,,G,]2 z2 | [C,,C,]2 z2 [G,,G,]2 z2 | %150
 .[C,C]2 z2 .[G,,G,]2 z2 | [=G,,=G,]2 z2 [C,C]2 z2 | [F,,F,]2 z2 [C,C]2 z2 | [B,,B,]2 z2 B,,2 z2 | %154
 A,,2 z2 [A,,A,]2 z2 | [=D,,=D,]2 z2 [G,,G,]2 z2 | [C,,C,]2 z2 A,,2 z2 | B,,2 z2 [^E,,^E,]2 z2 | %158
 [F,,F,]4 z4 | D,8 | E,8 | D,8 | E,8 | D,8 | E,8 | D,4 C,4 | B,,4 A,,4 | (=A,,4 C,4) | (G,,4 C,4) | %169
 (=A,,4 C,4) | (G,,4 C,4) | ([=A,,F,C]4 [C,E,C]4) | ([G,,D,^B,]4 [C,E,C]4) | %173
 ([=A,,F,C]4 [C,E,C]4) | ([G,,D,^B,]4 [C,E,C]4) ||[K:C] (3[E,,E,]2 [E,,E,]2 [E,,E,]2 [E,,E,]4 | %176
 [F,,F,]4 [^F,,^F,]4 | [F,,F,]4 [^F,,^F,]4 | [F,,F,]4 [E,,E,]4 | %179
 (3[E,,E,]2 [E,,E,]2 [E,,E,]2 [E,,E,]4 | [F,,F,]4 [^F,,^F,]4 | [F,,F,]4 [^F,,^F,]4 | %182
 [F,,F,]4 [E,,E,]4 | (3[E,,E,]2 [E,,E,]2 [E,,E,]2 [E,,E,]4 | %184
 (3[E,,E,]2 [E,,E,]2 [E,,E,]2 [E,,E,]4 | (3[_E,,_E,]2 [E,,E,]2 [E,,E,]2 [E,,E,]4 | %186
 (3[_E,,_E,]2 [E,,E,]2 [E,,E,]2 [E,,E,]4 | (3[D,,D,]2 [D,,D,]2 [D,,D,]2 [D,,D,]4 | %188
 [_E,,_E,]4 [=E,,=E,]4 | [_E,,_E,]4 [=E,,=E,]4 | [_E,,_E,]4 [D,,D,]4 | %191
 (3[D,,D,]2 [D,,D,]2 [D,,D,]2 [D,,D,]4 | [_E,,_E,]4 [=E,,=E,]4 | [_E,,_E,]4 [=E,,=E,]4 | %194
 [_E,,_E,]4 [D,,D,]4 | (3[D,,D,]2 [D,,D,]2 [D,,D,]2 [D,,D,]4 | %196
 (3[_D,,_D,]2 [D,,D,]2 [D,,D,]2 [D,,D,]4 | (3[C,,C,]2 [C,,C,]2 [C,,C,]2 [C,,C,]4 | %198
 (3[B,,,B,,]2 [B,,,B,,]2 [B,,,B,,]2 [B,,,B,,]4 |!mp! C,2 C,4 C,2- | C,2 C,4 C,2 | C,2 C,4 C,2- | %202
 C,2 C,4 C,2 | C,4 z4 |[K:treble]!mf! ([^fa]2 [g_b]2) ([^FA]2 [G_B]2) | %205
 ([A^c]2 [_Bd]2) ([A,^C]2 [_B,D]2) | ([^D^F]2 [EG]2) ([D,F,]2 [_E,G,]2) | %207
[K:bass]!mp! C,2 C,4 C,2- | C,2 C,4 C,2 | C,2 C,4 C,2- | C,2 C,4 C,2 | C,4 z4 | %212
[K:treble]!mf! ([^fa]2 [g_b]2) ([^FA]2 [G_B]2) | ([A^c]2 [_Bd]2) ([A,^C]2 [_B,D]2) | %214
 ([^D^F]2 [EG]2) ([D,F,]2 [_E,G,]2) |[K:bass] z8 | z8 | (!>![B,,B,]4 [C,C]4) | %218
 (!>![B,,B,]4 [C,C]4) | (!>![B,,,B,,]4 [C,,C,]4) | (!>![B,,,B,,]4 [C,,C,]4) | !fermata!_D,8 | %222
!p! !/-!^C,4 A,4 | !/-!^C,4 B,4 | !/-!^C,4 A,4 | !/-!^C,4 B,4 |"_cresc." !/-!^C,4 A,4 | %227
 !/-!^C,4 ^G,4 | !/-!^C,4 A,4 | !/-!^C,4!p! ^G,4 |!mp! (!/-!^C,4 [G,E]4) | (!/-!^C,4 [^F,D]4) | %232
 (!/-!^C,4 [G,E]4) | (!/-!^C,4 [^F,D]4) |!mp! !/-!^C,2 [_G,^C]2 !/-!C,2 [G,=C]2 | %235
 !/-!^C,2 [_G,B,]2 !/-!C,2 [G,C]2 | !/-!^C,2 ^D2 !/-!C,2 ^C2 |!>(! !/-!^C,2 C2 !/-!C,2 ^C2!>)! | %238
!p! !/-!^C,4 A,4 | !/-!^C,4 B,4 | !/-!^C,4 A,4 | !/-!^C,4 B,4 |"_cresc." !/-!^C,4 A,4 | %243
 !/-!^C,4 ^G,4 | !/-!^C,4 A,4 | !/-!^C,4!p! ^G,4 |!mp! (!/-!^C,4 [G,E]4) | (!/-!^C,4 [^F,D]4) | %248
 (!/-!^C,4 [G,E]4) | (!/-!^C,4 [^F,D]4) |!mp! !/-!^C,2 [_G,^C]2 !/-!C,2 [G,=C]2 | %251
 !/-!^C,2 [_G,B,]2 !/-!C,2 [G,C]2 | !/-![B,,^C,]2 ^D2 !/-![B,,C,]2 ^C2 | %253
 !/-![B,,^C,]2 C2 !/-![B,,C,]2 ^C2 | !/-![^A,,^C,]2 ^D2 !/-![A,,C,]2 ^C2 | %255
 !/-![^A,,^C,]2 C2 !/-![A,,C,]2 ^C2 |"_cresc." !/-!^C,4 B,4 | !/-!^C,4 ^A,4 | %258
 !/-!^C,2 ^G,2 !/-!C,2 ^A,2 | !/-!^C,4!mf! B,4 | !/-!^F,,4 [D,^F,]4 | !/-!^F,,4 [D,^F,]4 | %262
 [D,^F,]2 [^F,,D,F,] z [A,,F,A,] z [D,A,D] z |[K:treble] [^F,D^F] z [A,DA] z [DAd] z [FA^f] z | %264
[K:bass] !/-!^F,,4 [D,^F,]4 | !/-!^F,,4 [D,^F,]4 | %266
 [D,^F,]2 [A,,F,A,] z [D,A,D] z[K:treble] [F,D^F] z | [A,DA] z [DAd] z [^FA^f] z [Ada] z | %268
[K:bass] [A,,^C,A,]6 [C,^F,A,^C]2 | [D,^F,A,D]4 [^C,F,A,^C]4 | [B,,^F,B,]4 [A,,F,A,]4 | %271
 [^G,,^G,]4 [^F,,^F,]4 | [D,,D,]4 [^C,,^C,]4 | !fermata!z8 |] %274
V:3
 z4 A,2 G,2 | [A,D]4 [DG]2 =F2 | D4 z4 | F,2 ^G,>^A, B,2 C2 | z4 A,2 G,2 | [A,D]4 [DG]2 =F2 | %6
 D4 z4 | x8 | ^A,>B, C>^C =C2 (3(F,E,D,) | G,>^G, A,>B, C2 (3(E,D,C,) | %10
 =F,>^F, G,>^G, A,>=G, =F,>^F, | G,>F, E,2 z4 | ^A,>B, C>^C =C2 (3(F,E,D,) | %13
 G,>^G, A,>B, C2 (3(E,D,C,) | =F,>^F, G,>^G, A,>=G, =F,>^F, | G,>F, E,2 z4 | x8 | x8 | x8 | x8 | %20
[K:treble] x8 |[K:bass] x8 | x8 | G,,8 | G,,8 | G,,8 | G,8 | G,,8 | G,,8 | G,,8 | G,8 | G,8 | x8 | %33
 x8 | x8 | [B,E]4 [E,A,E]4 | B4 [EA]4 | [^G,B,]2 [B,E]2 z4 | x8 | [B,E]4 [E,A,E]4 | B4 [EA]4 | x8 | %42
 x8 | x8 | x8 | x8 | x8 ||[K:C][K:treble] x8 | x8 | x8 | x8 | x8 | x8 | x8 | x8 |[K:bass] x8 | x8 | %57
 .A, z z2 .G, z z2 | .^F, z .E, z .D, z z2 |[K:treble] x8 | x8 | x8 | x6[K:bass] x2 | x8 | x8 | %65
 x8 | x8 | x8 | x8 | x8 | z2 [A,D]2 z2 [B,^F]2 | z2 [B,E]2 z2 [A,E]2 | z2 [A,D]2 z2 [B,^F]2 | %73
 z2 [B,E]2 z2 [A,E]2 | z2 [A,D]2 z2 [^FA]2 | z2 [B,^F]2 z2 [B,F]2 | z2 [B,E]2 z2 [^FA]2 | %77
 z2 [B,^F]2 z2 [B,F]2 | z2 [B,E]2 z4 | z2 (^A,2 B,2 ^C2) | x8 | z2 (^A,2 B,2 ^C2) | x8 | x8 | x8 | %85
 z2 (B,2 C2 D2) | x8 | z2 (B,2 C2 D2) | x8 | x8 | x8 | x8 | x8 | x8 | x8 | x8 | x8 | x8 | x8 || %99
[K:Bb][M:2/2] x8 | x8 | x8 | x8 | x8 | x8 | x8 | x8 | x8 | x8 | x8 | x8 | x8 | x8 | x8 | x8 | x8 | %116
 x8 | x8 | x8 | x8 | x8 | x8 | x8 | x8 | x8 | x8 | x8 | x8 | x8 | x8 | x8 | x8 | x8 | x8 | x8 | %135
[K:treble] x8 | x8 ||[K:B][K:bass] x8 | x8 | x8 | x8 | x8 | x8 | x8 | x8 | x8 | x8 | x8 | x8 | x8 | %150
 x8 | x8 | x8 | x8 | x8 | x8 | x8 | x8 | x8 | x8 | x8 | x8 | x8 | x8 | x8 | x8 | x8 | x8 | x8 | %169
 x8 | x8 | x8 | x8 | x8 | x8 ||[K:C] x8 | x8 | x8 | x8 | x8 | x8 | x8 | x8 | x8 | x8 | x8 | x8 | %187
 x8 | x8 | x8 | x8 | x8 | x8 | x8 | x8 | x8 | x8 | x8 | x8 | x8 | x8 | x8 | x8 | x8 | %204
[K:treble] x8 | x8 | x8 |[K:bass] x8 | x8 | x8 | x8 | x8 |[K:treble] x8 | x8 | x8 |[K:bass] x8 | %216
 x8 | x8 | x8 | x8 | x8 | x8 | x8 | x8 | x8 | x8 | x8 | x8 | x8 | x8 | x8 | x8 | x8 | x8 | x8 | %235
 x8 | x8 | x8 | x8 | x8 | x8 | x8 | x8 | x8 | x8 | x8 | x8 | x8 | x8 | x8 | x8 | x8 | x8 | x8 | %254
 x8 | x8 | x8 | x8 | x8 | x8 | x8 | x8 | x8 |[K:treble] x8 |[K:bass] x8 | x8 | x6[K:treble] x2 | %267
 x8 |[K:bass] x8 | x8 | x8 | x8 | x8 | x8 |] %274
V:4
 z8 | z8 | z8 | z8 | z8 | z8 | z8 | z8 | z8 | z8 | z8 | z8 | z8 | z8 | z8 | z8 | %16
[K:treble] [_EA][EB][Ec] z z2!f!!8vb(! .A,,!8vb)! z | z8 | z4 z2!f!!8vb(! .A,,!8vb)! z | z8 | %20
[K:bass] A,,2 z2 A,2 [A,,A,]2 |[K:treble] [G_e] z z2 z4 | z8 | z8 | G4 G4 | G4 G4 | z8 | z8 | %28
 G4 G4 | G4 G4 | z8 | z8 | z8 | [ceg] z z2 z4 |!f! e3 d c>B A2 | ^G>F E z z4 | %36
[K:bass] E,,>F,, G,,>^G,, A,,>B,, C,>D, | z8 |[K:treble]!f! e3 d c>B A2 | ^G>F E z z4 | %40
[K:bass] E,,>F,, G,,>^G,, A,,>B,, C,>D, | z8 | z8 | z8 | z8 | z8 | z8 ||[K:C] z8 | z8 | z8 | z8 | %51
 z8 | z8 | z8 | z8 | z8 | z8 | z8 | z8 | z8 | z8 | z8 | z8 | z8 | z8 | z8 | z8 | z8 | z8 | z8 | %70
 z8 |[K:treble] z2 (B2 c2 ^c2 | d2 A2) z4 | z2 (B2 c2 ^c2 | d2 A2) z4 | z2 (^c2 d2 ^d2 | %76
 e2 B2) z4 | z2 (^c2 d2 ^d2 | e2 B2) z4 | [B,D]4 z4 | z8 | [B,D]4 z4 | z8 | [B,D]4 z4 | [B,D]4 z4 | %85
 [A,C_E]4 z4 | z8 | [A,C_E]4 z4 | z8 | [A,C_E]4 z4 | [A,C_E]4 z4 | [A,C_E]4 z4 | z8 | z8 | z8 | %95
 z8 | z8 | z8 | z8 ||[K:Bb][M:2/2] z8 | z8 | z8 | z8 | z8 | z8 | z8 | z8 | z8 | z8 | z8 | z8 | z8 | %112
 z8 | z8 | z8 | z8 | z8 | z8 | z8 | z8 | z8 | z8 | z8 | z8 | z8 | z8 | z8 | z8 | z8 | z8 | z8 | %131
 z8 | z8 | z8 | z8 | [G,=B,D]2 z2 z4 | z8 ||[K:B] [bd'f']2 z2 z4 | z8 | z8 | z8 | z8 | z8 | z8 | %144
 z8 | z8 | z8 | z8 | z8 | z8 | z8 | z8 | z8 | z8 | z8 | z8 | z8 | z8 | z8 | z8 | z8 | z8 | z8 | %163
 z8 | z8 | z8 | z8 | z8 | z8 | z8 | z8 | z8 | z8 | z8 | z8 ||[K:C] (3[CG]2 [CG]2 [CG]2 [CG]4 | z8 | %177
 z8 | z8 | (3[CG]2 [CG]2 [CG]2 [CG]4 | z8 | z8 | z8 | (3[CG]2 [CG]2 [CG]2 [CG]4 | %184
 (3[C^G]2 [CG]2 [CG]2 [CG]4 | (3[^CA]2 [CA]2 [CA]2 [CA]4 | (3[C_B]2 [CB]2 [CB]2 [CB]4 | %187
 (3[F_B]2 [FB]2 [FB]2 [FB]4 | z8 | z8 | z8 | (3[F_B]2 [FB]2 [FB]2 [FB]4 | z8 | z8 | z8 | %195
 (3[F_B]2 [FB]2 [FB]2 [FB]4 | (3[FB]2 [FB]2 [FB]2 [FB]4 | (3[Fc]2 [Fc]2 [Fc]2 [Fc]4 | %198
 (3[F^c]2 [Fc]2 [Fc]2 [Fc]4 | z8 | z8 | z8 | z8 | z8 | z8 | z8 | z8 | z8 | z8 | z8 | z8 | z8 | z8 | %213
 z8 | z8 | z8 | z8 | z8 | z8 | z8 | z8 | z8 | z8 | z8 | z8 | z8 | z8 | z8 | z8 | z8 | z8 | z8 | %232
 z8 | z8 | z8 | z8 | z8 | z8 | z8 | z8 | z8 | z8 | z8 | z8 | z8 | z8 | z8 | z8 | z8 | z8 | %250
!mf! ^C4 =C4 | B,4 C4 | ^D4 ^C4 | C4 ^C4 | ^D4 ^C4 | ^D4 ^C4 | [FB]8 | [^F^A]8 | ^G4 [^F^A]4 | %259
 [FB]8 | !//-![^FA]4 d4 | !//-![^FA]4 d4 | [^FAd]2 z2 z4 | z8 | !//-![Ad]4 ^f4 | !//-![Ad]4 ^f4 | %266
 [Ad^f]2 z2 z4 | z8 | !>![^c^fa]6 z2 | z8 | z8 | z8 | z8 | !fermata!z8 |] %274
V:5
 x8 | A>G F2 z4 | [Fc]2 G>A D2 G2 | z4 B2 A2 | x8 | A>G F2 z4 | [Fc]2 G>A D2 G2 | z4 A4 | %8
 (d2 e2) A4 | (B2 c>)d G4 | A2 B2 E2 _E2 | D3 ^C D z z2 | (d2 e2) A4 | (B2 c>)d G4 | A2 B2 E2 _E2 | %15
 D3 ^C D z z2 | x8 | x8 | x8 | x8 | x8 | x8 | x8 | G>A B>c [Bd]>[ce] =f>^f | d>c B2 c4 | %25
 B>c d2 c4 | ([Af]4 G4) | G>A B>c [Bd]>[ce] =f>^f | d>c B2 c4 | B>c d2 c4 | ([Af]4 G4) | %31
 ([Af]4 G4) | [Acf]8 | z4 G4 | ^G2 E2 A4 | x8 | x8 | x8 | ^G2 E2 A4 | x8 | x8 | x8 | x8 | x8 | x8 | %45
 x8 | x8 ||[K:C] x8 | x8 | x8 | x8 | x8 | x8 | x8 | x8 | x8 | x8 | x8 | x8 | [B^c]8 | ^c8 | %61
 ^g4 (^f2 g2) | x8 | x8 | x8 | x8 | x8 | x8 | x8 | x8 | x8 | x8 | x8 | x8 | x8 | x8 | x8 | x8 | %78
 x8 | x8 | x8 | x8 | x8 | x8 | x8 | x8 | x8 | x8 | x8 | x8 | x8 | x8 | x8 | x8 |[K:bass] x8 | x8 | %96
 x8 | x8 | x8 ||[K:Bb][M:2/2][K:treble] [FB]8 | [FB]8 | [FB]8 | [FB]8 | [FB]8 | [FB]8 | [EG]8 | %106
 [FG]8 | [EG]8 | [FG]8 | [Gc]8 | [Gc]8 | [Gc]8 | [Gc]8 | [CE]8 | [CF]8 | [=EG]8 | [FA]8 | [GB]8 | %118
 x8 | x8 | C!mp!(F,G,A, B,CDE) | B,8 | [CF]8 | [B,F]8 | C8 | [B,F]8 | C8 | [B,F]4 [FA]4 | %128
 [FB]4 [Fc]4 | c8 | G8 | c8 | G8 | x8 | x8 | x8 | x8 ||[K:B] z4 [FB]4 | [FB]8 | [FB]8 | [FB]8 | %141
 [FB]8 | [FB]8 | [EG]8 | [FG]8 | [EG]8 | [FG]8 | [Gc]8 | [Gc]8 | [Gc]8 | [Gc]8 | [CE]8 | [CF]8 | %153
 [EG]8 | [FA]8 | [GB]8 | x8 | x8 | z!mp! (F,G,A, B,CDE) | B,8 | [CF]8 | [B,F]8 | C8 | [CF]8 | C8 | %165
 [B,F]4 [FA]4 | x8 | c8 | G8 | c8 | G8 | x8 | x8 | x8 | x8 ||[K:C] x8 | [F_AB]4 [_EA]4 | %177
 [F_AB]4 [_EA]4 | [F_AB]4 G4 | x8 | [F_AB]4 [_EA]4 | [F_AB]4 [_EA]4 | [F_AB]4 G4 | x8 | x8 | x8 | %186
 x8 | x8 | [^D^FA]4 [_DF]4 | [^D^FA]4 [_DF]4 | [^D^F]4 E4 | x8 | [^D^FA]4 [_DF]4 | %193
 [^D^FA]4 [_DF]4 | [^D^F]4 E4 | x8 | x8 | x8 | x8 | [cf]8 | [cf]8 | [d^f]8 | [d^f]8 | [dg]4 z4 | %204
 x8 | x8 | x8 | [cf]8 | [cf]8 | [d^f]8 | [d^f]8 | [dg]4 z4 | x8 | x8 | x8 | x8 | x8 | x8 | x8 | %219
 x8 | x8 | x8 | (^C8 | D8) | (^C8 | D8) | ([^C^F]8 | ^F8) | ([^C^F]8 | ^F8) | (^c8 | [d^f]8) | %232
 (^c8 | [d^f]8) | [^d^g]8- | [dg]8 | [f^g]8- | [fg]8 | (^C8 | D8) | (^C8 | D8) | ([^C^F]8 | ^F8) | %244
 ([^C^F]8 | ^F8) | (^c8 | [d^f]8) | (^c8 | [d^f]8) | [^d^g]8- | [dg]8 | [f^g]8- | [fg]8 | %254
 [^f^a]8- | [fa]8 | [fb]8 | [^f^a]8 | ^g4 [^f^a]4 | [fb]8 | x8 | x8 | x8 | x8 | x8 | x8 | x8 | x8 | %268
 x8 | x8 | x8 | x8 | x8 | x8 |] %274
V:6
 x8 | x8 | x8 | x8 | x8 | x8 | x8 | x8 | x8 | x8 | x8 | x8 | x8 | x8 | x8 | x8 | %16
[K:treble] x6!8vb(! x!8vb)! x | x8 | x6!8vb(! x!8vb)! x | x8 |[K:bass] x8 |[K:treble] x8 | x8 | %23
 x8 | x8 | x8 | x8 | x8 | x8 | x8 | x8 | x8 | x8 | x8 | x8 | B4 A4 |[K:bass] x8 | x8 | %38
[K:treble] x8 | B4 A4 |[K:bass] x8 | x8 | x8 | x8 | x8 | x8 | x8 ||[K:C] x8 | x8 | x8 | x8 | x8 | %52
 x8 | x8 | x8 | x8 | x8 | x8 | x8 | x8 | x8 | x8 | x8 | x8 | x8 | x8 | x8 | x8 | x8 | x8 | x8 | %71
[K:treble] x8 | x8 | x8 | x8 | x8 | x8 | x8 | x8 | x8 | x8 | x8 | x8 | x8 | x8 | x8 | x8 | x8 | %88
 x8 | x8 | x8 | x8 | x8 | x8 | x8 | x8 | x8 | x8 | x8 ||[K:Bb][M:2/2] x8 | x8 | x8 | x8 | x8 | x8 | %105
 x8 | x8 | x8 | x8 | x8 | x8 | x8 | x8 | x8 | x8 | x8 | x8 | x8 | x8 | x8 | x8 | x8 | x8 | x8 | %124
 x8 | x8 | x8 | x8 | x8 | x8 | x8 | x8 | x8 | x8 | x8 | x8 | x8 ||[K:B] x8 | x8 | x8 | x8 | x8 | %142
 x8 | x8 | x8 | x8 | x8 | x8 | x8 | x8 | x8 | x8 | x8 | x8 | x8 | x8 | x8 | x8 | x8 | x8 | x8 | %161
 x8 | x8 | x8 | x8 | x8 | x8 | x8 | x8 | x8 | x8 | x8 | x8 | x8 | x8 ||[K:C] x8 | x8 | x8 | x8 | %179
 x8 | x8 | x8 | x8 | x8 | x8 | x8 | x8 | x8 | x8 | x8 | x8 | x8 | x8 | x8 | x8 | x8 | x8 | x8 | %198
 x8 | x8 | x8 | x8 | x8 | x8 | x8 | x8 | x8 | x8 | x8 | x8 | x8 | x8 | x8 | x8 | x8 | x8 | x8 | %217
 x8 | x8 | x8 | x8 | x8 | x8 | x8 | x8 | x8 | x8 | x8 | x8 | x8 | x8 | x8 | x8 | x8 | x8 | x8 | %236
 x8 | x8 | x8 | x8 | x8 | x8 | x8 | x8 | x8 | x8 | x8 | x8 | x8 | x8 | x8 | x8 | x8 | x8 | x8 | %255
 x8 | ^D2 ^C2 D2 C2 | ^D2 ^C2 D2 C2 | ^D2 ^C2 D2 C2 | ^D2 ^C2 D2 C2 | x8 | x8 | x8 | x8 | x8 | x8 | %266
 x8 | x8 | x8 | x8 | x8 | x8 | x8 | x8 |] %274

